X:1
T:Title
%%score { ( 1 3 ) | 2 }
L:1/8
M:9/8
K:D
V:1 treble nm="Grand Piano"
V:3 treble 
V:2 bass 
V:1
 z3 z3[Q:1/4=113] [DF]2 [EG] | [FA]3- [FA]2 [DF] [=Fd]2 [FB] | [FA]3 F3 F2 B | %3
 [CA]3- [CA]2 [CE] [C^D]2 [CE] | [DF]6 [DF]2 [EG] | [FA]3- [FA]2 [DF] [=Fd]2 [FB] | [FA]3 F3 A2 B | %7
 c3- c2 A B2 ^G | [CA]6 A2 A | A3- A2 B c2 B | [FA]3 [Fd]3 [FA]2 [FA] | ^A3- A2 A B2 c | B6 B2 B | %13
 d3- d2 d c2 B | B3 A3 [DG]2 [^DF] | z3 B,2 B [CA]2 [CA] |[M:3/4] D6 |[M:3/8] A2 A | %18
[M:9/8] [CA]3- [CA]2[K:bass] [G,CE] [F,D]2[K:treble] [G,CE] | [A,DF] [DFA]2- [DFA]3 [Fd]2 [Fd] | %20
 [^Gc]3- [Gc]2 [GB] [Gc]2 [GB] | A6 B2 A | [Fd]3- [Fd]2 [Fd] [Ae]2 [^Ad] | [Bd] B2- B3 c2 B | %24
 A3- A2 D [CF]2 [CE] |[M:3/4] D6 |] %26
V:2
 z3 z3 [D,A,]2 [D,A,] | [D,D]3- [D,D]2 [D,A,] [D,^G,]2 [D,G,] | [D,A,]3 [D,D]3 [D,A,D]2 [D,F,D] | %3
 [A,,G,]3- [A,,G,]2 [A,,G,] [A,,F,]2 [A,,G,] | [D,A,]6 [D,A,]2 [D,A,] | %5
 [D,D]3- [D,D]2 [D,A,] [D,^G,]2 [D,G,] | [D,A,]3 [D,A,D]3 [F,A,D]2 [=F,A,D] | %7
 [E,A,E]3- [E,A,E]2 [E,CE] [E,DE]2 [E,B,E] | [A,,A,]6[K:treble] [A,C]2 [A,B,D] | %9
 [A,CE]3- [A,CE]2 [A,DF] [A,EG]2 [A,CG] | [D,D]3 [D,A,]3 [D,D]2 [D,D] | %11
 [F,CE]3- [F,CE]2 [F,CE][K:treble] [F,DF]2 [F,EF] | [B,DF]6 [B,DF]2 [A,DF] | %13
 [^G,B,=F]3- [G,B,F]2 [G,B,F] [G,CF]2 [G,DF] | [A,DF]3 [A,DF]3[K:bass] [B,,B,]2 [B,,A,] | %15
 [E,G,]3- [E,G,]2 [E,G,D] [A,,G,]2 [A,,G,] |[M:3/4] [D,F,]6 |[M:3/8] [D,F,D]2 [D,F,D] | %18
[M:9/8] [A,,G,]3- [A,,G,]2 A,, A,,2 A,, | D, D,2- D,3 [D,A,]2 [D,A,] | %20
 [E,D]3- [E,D]2 [E,D] [E,E]2 [E,D] | [A,CE]6 [A,DG]2 [A,CG] | %22
 [D,A,]3- [D,A,]2 [D,A,] [F,D]2 [F,D] | [G,D] [G,DG]2- [G,DG]3 [^G,C=F]2 [G,DF] | %24
 [A,DF]3- [A,DF]2[K:bass] [A,,F,A,] [A,,A,]2 [A,,G,] |[M:3/4] [D,F,]6 |] %26
V:3
 x9 | x9 | x9 | x9 | x9 | x9 | x9 | x9 | x9 | x9 | x9 | x9 | x9 | x9 | x9 | E6 z3 |[M:3/4] x6 | %17
[M:3/8] x3 |[M:9/8] x5[K:bass] x3[K:treble] x | x9 | x9 | x9 | x9 | x9 | x9 |[M:3/4] x6 |] %26

